X: 44
M: 6/8
L: 1/8
K: G
|: f |\
g2d e2d | g2d e2d | c2B A2G | FAA A2f |
g2d e2d | g2d e2d | dcB ABc | BGG G2 :|




